X:1
T:Jacob’s Dream
T:Jacob’s Dream
T:William Howard Doane
T:Frances Jane (Fanny) Crosby, 1884
T:Public Domain Courtesy of the Cyber Hymnal™
T:Public Domain Courtesy of the Cyber Hymnal™
C:William Howard Doane
Z:Public Domain
Z:Courtesy of the Cyber Hymnal™
%%score ( 1 2 ) 3
L:1/8
Q:1/4=95
M:4/4
K:Bb
V:1 treble 
V:2 treble 
V:3 bass 
V:1
 [DF]>[^C=E] [DF]>[_EG] [DF]2 [FB]2 | [FA]>[FG] [FA]>[FB] [Fc]4 | [Fd]>[Ec] [DB]>[EG] [DF]2 [FB]2 | %3
w: 1.~Day had soft- ly fad- ed|In the gold- en west,|Ja- cob, sad and lone- ly,|
w: 2.~On a won- drous lad- der,|Reach- ing to the skies,|An- gel forms des- cend- ing,|
w: 3.~Far from home and kin- dred,|In that lone- ly spot,|God was watch- ing o’er him,|
 [FA]>[Fc] [=EB]>[EG] F4 | [DF]>[^C=E] [DF]>[_EG] [DF]2 [FB]2 | [FA]>[FG] [FA]>[FB] [Fc]4 | %6
w: Laid him down to rest;|Tho’ a stone his pil- low,|Soon he calm- ly slept,|
w: Filled him with sur- prise;|From its loft- y sum- mit,|Came the words di- vine:|
w: Yet he knew it not;|Thus the hand whose mer- cy|Gov- erns all our ways,|
 [^Fd]>[Fc] [FB]>[FA] G2 !fermata![GB]2 | F>[FB] [FB]>[FA] [FB]4 || %8
w: While the stars a- bove him|Si- lent vi- gil kept.|
w: “I, the Lord, have prom- ised,|Lo, this land is thine.”|
w: Out of deep- est tri- al,|Brings the high- est praise.|
"^Refrain" [Ac]4- [Ac]>[Fc] [FB]>[Fc] | [Fd]2 [FB]4 z2 | [Ff]4- [Ff]>[Fd] [Fc]>[FB] | %11
w: |||
w: O * that night at|Beth- el!|Bright * with joy its|
w: |||
 [Fc]2 [Fd]2 [Fe]4 | [Fd]4- [Fd]>[Fd] [Fc]>[FB] | [EG]2 [GB]4 z2 | %14
w: |||
w: ho- ly beam;|There * his soul up-|lift- ed,|
w: |||
 [Fd]>[Fc] [FB]>[Fd] [Ec]2 [EG]>[FA] | [DB]6 z2 |] %16
w: ||
w: Heard the voice of God in a|dream.|
w: ||
V:2
 x8 | x8 | x8 | x4 F4 | x8 | x8 | x4 G2 x2 | F3/2 x13/2 || x8 | x8 | x8 | x8 | x8 | x8 | x8 | x8 |] %16
V:3
 [B,,B,]>[B,,B,] [B,,B,]>[B,,B,] [B,,B,]2 [B,,B,]2 | [F,C]>[F,B,] [F,C]>[F,D] [F,A,]4 | %2
 [B,,B,]>[B,,B,] [B,,B,]>[B,,B,] [B,,B,]2 [B,,D]2 | [C,C]>[C,A,] [C,G,]>[C,B,] [F,A,]4 | %4
 [B,,B,]>[B,,B,] [B,,B,]>[B,,B,] [B,,B,]2 [D,B,]2 | [F,C]>[F,B,] [F,C]>[F,D] [F,A,]4 | %6
 [D,A,]>[D,A,] [D,D]>[D,C] [E,B,]2 [=E,^C]2 | [F,D]>[F,D] [F,D]>[F,E] [B,,D]4 || %8
 ([F,C]2 [F,F]2 [F,F]>)[F,E] [F,D]>[F,A,] | [B,,B,]2 ([B,,D]2 [B,,D]2) z2 | %10
 ([B,D]2 [B,D]2 [B,D]>)[B,,B,] [C,A,]>[D,B,] | [F,A,]2 [F,B,]2 [F,C]4 | %12
 ([B,,B,]2 [B,,B,]2 [B,,B,]>)[B,,B,] [C,A,]>[D,B,] | [E,B,]2 ([E,B,]2 [E,B,]2) z2 | %14
 [F,B,]>[F,E] [F,D]>[F,B,] [F,A,]2 [F,B,]>[F,C] | [B,,B,]6 z2 |] %16

